X:1
T:James Gibb editions
T:Damon e Filli - Vecchi
T:#
%%score [ 1 2 3 4 ]
L:1/8
Q:1/4=80
M:4/4
K:Bb
V:1 treble nm="Soprano I" snm="S I"
V:2 treble nm="Soprano II" snm="S II"
V:3 treble nm="Alto" snm="A"
V:4 treble-8 nm="Tenor" snm="T"
V:1
 z2 A2 B3 A | G"^Damon e Filli"d d2 d4 | z4 z"^Orazio Vecchi\n(1550-1605)" dBB- | %3
w: Da- mon e|Fil- li~in- sie- me|Guer- reg- gia\-|
w: E- ran guar-|di pos- sen- ti|Le lor ar\-|
w: Ma si can-|giò la sor- te:|Cha da col\-|
w: Non fia mai|che tu pe- ra|All'- hor dis\-|
[M:4/4] B/B/A Bd Ed>cB | AA B2- BA c2 | d8 | B2 d=e f3 e | d>d c>B c2 cc | %8
w: * van fra lor, guer- reg- gia- van fra|lor con for\- * ze~~es- tre-|me;|Pa- ri~~e- ran l'ar- mi,~~i|col- pi~~e le fe- ri- te, i|
w: * mi ch'av- ean, le lor ar- mi ch'av-|ean sal- de~~e * pun- gen-|te;|E- ran so spi- ri~~i|col- p'e~~i ca- ri ba- ci, i|
w: * po mor- tal, cha da col- po mor-|tal sen- ten\- * do mor-|te,|Fil- li nel pet- to|ce- de e s'ab- ban- do- na,|
w: * se Da- mon, all'- hor dis- se Da-|mon, dol- ce * guer- rie-|ra;|Que- sta che ti par|mor- te~~e dol- ce vi- ta, mor-|
 B>c d>!courtesy!_e d2 d2 | z4 gg/g/ gf | !courtesy!_e3 d c2 e2 | d4 d4 :| %12
w: col- pi~~e le fe- ri- te,|Et e- ra~~a- mor pre-|sen- te~~a sì gran|li- te.|
w: col- p'e~~i ca- ri ba- ci|E- ra- no le fe-|ri- te~~ac- cor- t'e~~au-|da- ci.|
w: ce- de~~e s'ab- ban- do- na|Di- cen- do:~~A- mi- co~~io|ti per- don, per-|do- na.|
w: te e dol- ce vi- ta|Ch'a guer- reg- giar spes-|so gl'a- man- ti~~in|vi- ta.|
V:2
 d4 d3 d | BA B2 A2 z d | Gd>cB A2 z d |[M:4/4] Gd>cB BABd | d2 d2 z cAG | (^F G2 F) G4 | %6
w: Da- mon e|Fil- li~in- sie- me Guer-|reg- gia- van fra lor, guer-|reg- gia- van fra lor con for- ze~~es-|tre- me, con for- ze~~es-|tre\- * * me;|
w: E- ran guar-|di pos- sen- ti Le|lor ar- mi ch'av- ean, Le|lor ar- mi ch'av- ean sal- de~~e pu-|gen- ti, sal- de~~e pun-|gen\_- * * te;|
w: Ma si can-|giò la sor- te: Cha|da col- po mor- tal, Cha|da col- po mor- tal sen- ten- do|mor- te, sen- ten- do|mor\- * * te,|
w: Non fia mai|che tu pe- ra All'-|hor dis- se Da- mon, all'-|hor dis- se Da- mon, dol- ce guer-|rie- ra, dol- ce guer-|rie\- * * ra;|
 d2 f=e d3 e | f>g f>d f2 ff | d>c B>B A2 A2 | z8 | gg/g/ gf (!courtesy!_e>d c)B | (AB A2) =B4 :| %12
w: Pa- ri~~e- ran l'ar- mi,~~i|col- pi~~e le fe- ri- te, i|col- pi~~e le fe- ri- te,||Et e- ra~~a- mor pre- sen\- * * te~~a|sì gran li- te.|
w: E- ran so spi- ri~~i|col- p'e~~i ca- ri ba- ci, i|col- p'e~~i ca- ri ba- ci||E- ra- no le fe- ri- te~~ac- cor- te|au\- * da- ci.|
w: Fil- li nel pet- to|ce- de e s'ab- ban- do- na,|ce- de~~e s'ab- ban- do- na||Di- cen- do:~~A- mi- co~~io ti per- don, per-|do\- * * na.|
w: Que- sta che ti par|mor- te~~e dol- ce vi- ta, mor-|te e dol- ce vi- ta||Ch'a guer- reg- giar spes- so gl'a- man- ti~~in|vi\- * * ta.|
V:3
 z4 z2 z D | G^F G2 F4 | z4 z DG,G- |[M:4/4] G/G/^F G2 z DG,G- | G/G/^F GG (=F>G A/B/c- | %5
w: E|Fil- li~in- sie- me|Guer- reg- gia\-|* van fra lor, guer- reg- gia\-|* van fra lor con for\- * * * *|
w: Guar-|di pos- sen- ti|Le lor ar\-|* mi ch'av- ean, le lor ar\-|* mi ch'av- ean sal- de~~e * * * *|
w: Can-|giò la sor- te:|Cha da col\-|* po mor- tal, cha da col\-|* po mor- tal sen- ten\- * * * *|
w: Mai|che tu pe- ra|All'- hor dis\-|* se Da- mon, all'- hor dis\-|* se Da- mon, dol- ce * * * *|
 cB A2 =B4 | F2 BB B3 G | B>G A>B A2 AA | G>=E G>G ^F2 F2 | BB/B/ BA G/A/B/G/) B2 | %10
w: * ze~~es\-~ tre- me;|Pa- ri~~e- ran l'ar- mi,~~i|col- pi~~e le fe- ri- te, i|col- pi~~e le fe- ri- te,|Et e- ra~~a- mor pre- sen\- * * * te,|
w: * pun- gen- te;|E- ran so spi- ri~~i|col- p'e~~i ca- ri ba- ci, i|col- p'e~~i ca- ri ba- ci|E- ra- no le fe- ri- * * * te,|
w: * do mor- te,|Fil- li nel pet- to|ce- de e s'ab- ban- do- na,|ce- de~~e s'ab- ban- do- na|Di- cen- do:~~A- mi- co~~io ti * per\- * don,|
w: * guer- rie- ra;|Que- sta che ti par|mor- te~~e dol- ce vi- ta, mor-|te e dol- ce vi- ta|Ch'a guer- reg- giar gl'a- man\- * * * ti,|
 z2 cc/c/ (cB)AG | (^F G2 F) G4 :| %12
w: et e- ra~~a- mor pre- sen- te~~a|sì gran li- te.|
w: E- ra- no le fe- ri- te~~ac-|cort' au- da- ci.|
w: di- cen- do:~~A- mi- co ti per|do\- * * na.|
w: spes- so gl'a- man\- * ti in-|vi- * * ta.|
V:4
 z2 d2 g3 ^f | gd G2 d4 | z dG g- g/g/^f g2 |[M:4/4][K:treble-8] z dG g- g/g/"^#"^f g2 | %4
w: Da- mon e|Fil- li~in- sie- me|Guer- reg- gia\- * van fra lor,|guer- reg- gia\- * van fra lor|
w: E- ran guar-|di pos- sen- ti|Le lor ar\- * mi ch'av- ean,|le lor ar\- * mi ch'av- ean|
w: Ma si can-|giò la sor- te:|Cha da col\- * po mor- tal,|cha da col\- * po mor- tal|
w: Non fia mai|che tu pe- ra|All'- hor dis\- * se Da- mon,|all'- hor dis\- * se Da- mon,|
 z d (G/A/B/c/ d/=e/ f2) _e | d4 G4 | B2 BB B3 c | d>=e f>g f2 fF | G>A B>c d2 d2 | %9
w: con for\- * * * * * * ze~~es-|tre- me;|Pa- ri~~e- ran l'ar- mi,~~i|col- pi~~e le fe- ri- te, i|col- pi~~e le fe- ri- te,|
w: sal- de~~e * * * * * * pun-|gen- te;|E- ran so spi- ri~~i|col- p'e~~i ca- ri ba- ci, i|col- p'e~~i ca- ri ba- ci|
w: sen- ten\- * * * * * * do|mor- te,|Fil- li nel pet- to|ce- de e s'ab- ban- do- na,|ce- de~~e s'ab- ban- do- na|
w: dol- ce * * * * * * guer-|rie- ra;|Que- sta che ti par|mor- te~~e dol- ce vi- ta, mor-|te e dol- ce vi- ta|
 gg/g/ gf !courtesy!_e3 d | c6 c2 | d4 G4 :| %12
w: Et e- ra~~a- mor pre- sen- te~~a|sì gran|li- te.|
w: E- ra- no le fe- ri- te~~ac-|cort' au-|da- ci.|
w: Di- cen- do:~~A- mi- co~~io ti per-|don, per-|do- na.|
w: Ch'a guer- reg- giar spes- so gl'a-|man- ti~~in|vi- ta.|

